X: 21983
T: Kitty Of Oulart
R: jig
M: 6/8
K: Dmajor
FAD FED|FAD FED|GBG FAF|EFE EFG|
FAD FED|FAD FED|dcB AFA|DED D2:|
d2 e f2 d|edB BAF|ABA ABd|efd edB|
d2 e f2 d|edB BAF|dcB AFA|DED D2:|
d>cd efg|fed cBA|B<dB AFD|EFE E2 A|
d>cd efg|fed cBA|B<dB AFA|DED D2:|

